X:165
T:Cut Him Down Susie
R:Strathspey
B:The Athole Collection
M:C|
L:1/8
K:D
B|A<F D>F E>FG>B|A<FE>A FB|A<F D>F E>FG>B|A<F d>F Add:|
|:B|A<d d>g f>dc>A|A<d d>g g<a a>f|g>ef>d e>dc>A|B>c e/d/c/B/ Add:|
